X:1
T:Stern über Bethlehem
T:Stern über Bethlehem
T:for TTBB
T:traditionell
T:Arr. TvL
C:traditionell
Z:Arr. TvL
%%score [ ( 1 2 ) ( 3 4 ) ]
L:1/8
Q:1/4=100
M:4/4
K:G
V:1 treble-8 nm="T.\nLd."
V:2 treble-8 
V:3 bass nm="Br.\nBs."
V:4 bass 
V:1
 B2 FG FG c2 | Bced- d4 | e2 fg fe e2 | Bcdg- g4 | g2 gg fg f2 | ddd(d- d2 c2) | B2 FG FG c2 | %7
w: |||||||
w: |||||||
w: |||||||
w: |||||||
w: |||||||
w: |||||||
w: |||||||
w: |||||||
w: |||||||
w: |||||||
w: |||||||
w: |||||||
 BBcB- B4 || z8 | z8 | z4 .e z/ (!>!e/- eg) | z8 | g z/ g/- gg g4 | z8 | z4 .e z/ !>!e/- e2 | z8 | %16
w: |||||||||
w: |||||||||
w: |||||||||
w: |||||||||
w: |||||||||
w: |||||||||
w: |||||||||
w: |||||||||
w: |||||||||
w: |||||||||
w: |||||||||
w: |||||||||
 BB.c!>(!B- B4!>)! ||[M:6/8]!p! z dd z dd | z dd z dd | z dd z dd | z dd z dd | z dd z dd | %22
w: |dit dit dit dit|dit dit ... *||||
w: ||||||
w: ||||||
w: ||||||
w: ||||||
w: ||||||
w: ||||||
w: ||||||
w: ||||||
w: ||||||
w: ||||||
w: ||||||
 z dd z dd | z dd z dd | z dd z ff | z gg z gg | z ff z ff | z ee z dd | z dd z ^cc | z dd z dd | %30
w: ||||||||
w: ||||||||
w: ||||||||
w: ||||||||
w: ||||||||
w: ||||||||
w: ||||||||
w: ||||||||
w: ||||||||
w: ||||||||
w: ||||||||
w: ||||||||
 z dd z dd | z dd z de | z de!<(! !-(!d3!<)! ||[M:4/4]!ff!!ff! !-)!f8 | a8 | z g z g z g z g | %36
w: ||||||
w: |||||d * * *|
w: ||||||
w: ||||||
w: ||||||
w: ||||||
w: ||||||
w: |||||* * * d|
w: ||||||
w: ||||||
w: |||||* * d *|
w: ||* * da|_|da|* d * *|
 z g z g z a z a | z g z g z g z g | z g z g z a z a | z g z g z g z g | z g z g z a z a | %41
w: |d d d d|d d d d|d d d d|d d d d|
w: |||||
w: |||||
w: |||||
w: |||||
w: |||||
w: |||||
w: * d * d|||||
w: * * d *|||||
w: |||||
w: d * * *|||||
w: |||||
 z g z g z g z g | z g z g g/>=f/ z g2- | g8 || z4 z deg | gg (g2- g2 f2) | b2 ab ag g2 | %47
w: d d d d|d d du- ap dao||Stern
 ü- ber|Beth- le- hem! _ _|_ _ _ _ _ _|
w: ||||||
w: ||||||
w: ||||||
w: ||||||
w: ||||||
w: ||||||
w: ||||||
w: ||||||
w: ||||||
w: ||||||
w: ||||||
 bgba- a4 | c'2 c'c' bb b2 | ggg(a- a2 b2) | b2 ag ag e2 | bbc'b- b4 |] %52
w: |||||
w: |||||
w: |||||
w: |||||
w: |||||
w: |||||
w: |||||
w: |||||
w: |||||
w: |||||
w: |||||
w: |||||
V:2
 G2 AB AG E2 | GEGA- A4 | G2 AB AG E2 | GEGd- d4 | e2 ee dd d2 | BBBA- A4 | G2 AB AG E2 | %7
w: Stern ü- ber Beth- le- hem,|zeig' uns den Weg! _|Führ' uns zur Krip- pe hin,|zeig, wo sie steht! _|Leu- chte du uns vo- ran,|bis wir dort sind. _|Stern ü- ber Beth- le- hem,|
 GGEG- G4 || x8 | z GAB A/G/-G/E/- E z | z GEG (AB/A/- AB) | z GAB A/G/-G/E/- E z | %12
w: führ' uns zum Kind! _||Stern ü- ber Beth- le- * hem, _|blei- be nicht steh'n! _ _ _ _|Du sollst den stei- len- * Pfad _|
 G z/ E/- EG (d2 e2) | z eee d/d/-d/d/- d z | z BBB (AB/A/- A2) | z GAB A/G/-G/E/- E z | %16
w: vor uns _ her geh'n. _|Führ uns zum Stall und _ zu _|E- sel und Rind! _ _ _|Stern ü- ber Beth- le- * hem, _|
 GG.EG- G4 ||[M:6/8] G3 A2 B | A2 G E3 | G3 E2 G | A6 | G3 A2 B | A2 G E3 | G3 E2 G | d6 | %25
w: führ' uns zum Kind! _|Stern ü- ber|Beth- le- hem,|nun bleibst du|steh'n|und lässt uns|al- le das|Wun- der hier|seh'n,|
 e3 e2 e | d2 d d3 | B3 B2 B | A6 | G3 A2 B | A2 G E3 | G3 G2 E | G3- !-(!G3 ||[M:4/4] !-)!B8 | %34
w: das da ge-|sche- hen ist|in dun- kler|Nacht.|Stern ü- ber|Beth- le- hem,|in die- ser|Nacht. *||
 c8 | G2 AB AG/E/- E2 | z GEG A4 | G2 AB AG/E/- E2 | z GEG d4 | e2 ee dd/d/- d2 | BBBA- A4 | %41
w: |Stern ü- ber Beth- le- hem, _|wir sind am Ziel.|Denn die- ser ar- me Stall _|birgt doch so viel!|Du hast uns her- ge- führt, _|wir dan- ken dir. _|
 G2 AB AG/E/- E2 | z GGE G4- | G8 || G2 AB AG E2 | GEGA- A4 | G2 AB AG E2 | GEGd- d4 | %48
w: Stern ü- ber Beth- le- hem, _|wir blei- ben hier.|_|Stern ü- ber Beth- le- hem,|kehr'n wir zu- rück, _|steht noch dein hel- ler Schein|in un- serm Blick! _|
 e2 ee dd d2 | BBBA- A4 | G2 AB AG E2 | GGEG- G4 |] %52
w: Und was uns froh ge- macht|tei- len wir aus. _|Stern ü- ber Beth- le- hem,|schein auch zu Haus'! _|
V:3
 D,2 D,D, D,E, E,2 | G,G,B,A,- A,4 | E,2 D,D, D,E, G,2 | G,G,B,C- C (B,CD) | C2 CC A,A, A,2 | %5
w: |||* * * * * (oh- oh- oh)||
 G,G,G,F,- F,4 | E,2 D,D, D,E, E,2 | D,D,C,B,,- B,,4 || z2 z2 z4 | z8 | z4 .F, z/ !>!F,/- F,G, | %11
w: ||||||
 z8 | D, z/ E,/- E,D, (D,2 G,2) | z8 | z4 .F, z/ !>!F,/- F,2 | z8 | D,D,.E,!>(!D,- D,4!>)! || %17
w: ||||||
[M:6/8]!p! z B,B, z B,B, | z B,B, z B,B, | z B,B, z B,B, | z A,A, z A,A, | z B,B, z B,B, | %22
w: |||||
 z B,B, z B,B, | z B,B, z B,B, | z A,A, z DD | z EE z EE | z DD z DD | z B,B, z B,B, | %28
w: ||||||
 z A,A, z A,A, | z B,B, z A,A, | z B,B, z B,B, | z B,B, z B,C | z B,_B, !-(!=B,3 || %33
w: |||||
[M:4/4]!ff! !-)!D8 | D8 | z D z D z D z E | z D z D z D z D | z D z D z D z E | z D z D z D z D | %39
w: ||||||
 z E z E z D z D | z D z D z ^C z C | z D z D z D z E | z D z D D/>^C/ z D2- | D8 || %44
w: |||||
 G,2 A,B, A,G, E,2 | G,E,G,A,- A,4 | G,2 A,B, A,G, E,2 | G,E,G,D- D4 | E2 EE DD D2 | %49
w: |||||
 B,B,B,A,- A,4 | G,2 A,B, A,G, E,2 | B,B,CD- D4 |] %52
w: |||
V:4
 G,,2 A,,G,, A,,C, C,2 | D,C,E,D,- D,4 | C,2 A,,G,, A,,C, C,2 | D,C,D,A,,- A,,4 | %4
w: ||||
 G,,2 G,,G,, A,,C, D,2 | B,,B,,B,,D,- D,4 | B,,2 A,,G,, A,,C, C,2 | B,,B,,A,,G,,- G,,4 || %8
w: ||||
 .D, z .D, z .D, z/ D,/ C,/B,,/A,, | G,,2 .D, z/ G,,/ G,,G,,.D,F,, | %10
w: ts ts ts ba- dum ba- dum|bum ts ba- dum dum ts bum|
 E,,2 .D, z .A,, z/ (!>!A,,/- A,,G,,) | G,,2 .D, z/ G,,/ G,,G,,.D,A,, | %12
w: bum ts ste- hen _ _|bum ts ba- dum dum ts bum|
 B,, z/ B,,/- B,,B,, (B,,2 C,2) | C,2 .D, z/ A,,/ G,,G,,.D,F,, | E,,2 .D, z .A,, z/ !>!A,,/- A,,2 | %15
w: |bum ts ba- dum dum ts bum|bum ts und Rind! _|
 G,,2 .D, z/ B,,/ E,E,D,C, | B,,B,,.C,B,,- B,,4 ||[M:6/8] G,,3 G,,3 | G,,3 G,,3 | G,,3 G,,3 | %20
w: bum ts ba- du- du- du- du||dm dm|dm ...||
 F,,3 F,,3 | G,,3 G,,3 | G,,3 G,,3 | G,,3 G,,3 | F,,3 A,,3 | C,3 C,3 | D,3 D,3 | B,,3 B,,3 | %28
w: ||||||||
 A,,3 A,,3 | G,,3 F,,3 | G,,3 G,,3 | G,,3 G,,3 | G,,3- !-(!G,,3 ||[M:4/4] !-)!E,8 | F,8 | %35
w: ||||da _|_|da|
 G,,/>G,,/B,, D,E,/=F,/- F,/>F,/E, D,E, | G,,/>G,,/B,, D,E,/F,/- F,/>F,/D, C,D, | %37
w: du- ba du du du du- * ba du du du|du- ba du du du du- * ba du du du|
 G,,/>G,,/B,, D,E,/=F,/- F,/>F,/E, D,E, | G,,/>G,,/B,, D,E,/F,/- F,/>F,/D, C,D, | %39
w: du- ba du du du du- * ba du du du|du- ba du du du du- * ba du du du|
 C,/>C,/C, C,C,/B,,/- B,,/>B,,/B,, B,,B,, | G,,/>G,,/G,, G,,G,,/A,,/- A,,/>A,,/A,, A,,A,, | %41
w: du- ba du du du du- * ba du du du|du- ba du du du du- * ba du du du|
 G,,/>G,,/B,, D,E,/=F,/- F,/>F,/E, D,E, | G,,/>G,,/B,, D,E, =F,/>.G,/ z G,2- | G,8 || %44
w: du- ba du du du du- * ba du du du|du- ba du du du du- ap dao||
 G,2 A,B, A,G, E,2 | G,E,G,A,- A,4 | G,2 A,B, A,G, E,2 | G,E,G,D- D4 | C2 CC B,B, B,2 | %49
w: |||||
 G,G,G,F,- F,4 | G,2 A,B, A,G, E,2 | D,D,C,G,,- G,,4 |] %52
w: |||

